src/24/actions/zoom-in.svg

<svg xmlns="http://www.w3.org/2000/svg" viewBox="0 0 24 24"><path d="M4 4v2h1V5h1V4H4zm5 0v1h2V4H9zm4 0v1h2V4h-2zm5 0v1h1v1h1V4h-2zm-6 4v1h2.293L11 12.293l.707.707L15 9.707V12h1V8h-4zM4 9v2h1V9H4zm15 0v2h1V9h-1zm0 4v2h1v-2h-1zM4 14v6h6v-6H4zm1 1h4v4H5v-4zm14 3v1h-1v1h2v-2h-1z" fill="currentColor" color="#5d656b"/></svg>

<svg xmlns="http://www.w3.org/2000/svg" viewBox="0 0 24 24">
  <defs id="defs3051">
    <style type="text/css" id="current-color-scheme">
      .ColorScheme-Text {
        color:#5d656b;
      }
      </style>
  </defs>
 <path style="fill:currentColor;fill-opacity:1;stroke:none" 
     d="M 4 4 L 4 6 L 5 6 L 5 5 L 6 5 L 6 4 L 4 4 z M 9 4 L 9 5 L 11 5 L 11 4 L 9 4 z M 13 4 L 13 5 L 15 5 L 15 4 L 13 4 z M 18 4 L 18 5 L 19 5 L 19 6 L 20 6 L 20 4 L 18 4 z M 12 8 L 12 9 L 14.292969 9 L 11 12.292969 L 11.707031 13 L 15 9.7070312 L 15 12 L 16 12 L 16 8 L 15 8 L 12 8 z M 4 9 L 4 11 L 5 11 L 5 9 L 4 9 z M 19 9 L 19 11 L 20 11 L 20 9 L 19 9 z M 19 13 L 19 15 L 20 15 L 20 13 L 19 13 z M 4 14 L 4 20 L 10 20 L 10 14 L 4 14 z M 5 15 L 9 15 L 9 19 L 5 19 L 5 15 z M 19 18 L 19 19 L 18 19 L 18 20 L 20 20 L 20 18 L 19 18 z "
     class="ColorScheme-Text"
     />
</svg>
